packages/dnb-ui-lib/assets/icons/people_1_medium.svg

<svg width="24" height="24" viewBox="0 0 24 24" fill="none" xmlns="http://www.w3.org/2000/svg">
<path d="M14.6043 17.9002C14.2524 18.1187 14.1443 18.5812 14.3629 18.933C14.5814 19.2849 15.0439 19.3929 15.3957 19.1744L14.6043 17.9002ZM20.2363 22.5458C20.2616 22.9593 20.6173 23.2739 21.0307 23.2486C21.4442 23.2233 21.7588 22.8676 21.7335 22.4542L20.2363 22.5458ZM17 4.25C16.5858 4.25 16.25 4.58579 16.25 5C16.25 5.41421 16.5858 5.75 17 5.75V4.25ZM14.45 13.4004C14.1189 13.1516 13.6487 13.2183 13.3999 13.5495C13.1511 13.8807 13.2178 14.3508 13.549 14.5996L14.45 13.4004ZM12.238 22.5395C12.2598 22.9532 12.6128 23.2708 13.0265 23.249C13.4401 23.2271 13.7577 22.8741 13.7359 22.4605L12.238 22.5395ZM2.2641 22.4605C2.24228 22.8741 2.5599 23.2271 2.97354 23.249C3.38718 23.2708 3.74019 22.9532 3.76202 22.5395L2.2641 22.4605ZM15.3957 19.1744C15.8211 18.9102 16.3491 18.75 17 18.75V17.25C16.0915 17.25 15.2854 17.4771 14.6043 17.9002L15.3957 19.1744ZM17 18.75C18.0228 18.75 18.7669 19.1449 19.2887 19.779C19.8274 20.4338 20.1657 21.3927 20.2363 22.5458L21.7335 22.4542C21.6494 21.0807 21.2398 19.7896 20.447 18.826C19.6372 17.8417 18.4662 17.25 17 17.25V18.75ZM21.25 10C21.25 12.3472 19.3472 14.25 17 14.25V15.75C20.1756 15.75 22.75 13.1756 22.75 10H21.25ZM17 5.75C19.3472 5.75 21.25 7.65279 21.25 10H22.75C22.75 6.82436 20.1756 4.25 17 4.25V5.75ZM17 14.25C16.0422 14.25 15.1603 13.9341 14.45 13.4004L13.549 14.5996C14.5102 15.3218 15.7062 15.75 17 15.75V14.25ZM8.00001 17.75C9.3594 17.75 10.3526 18.2634 11.0382 19.078C11.7399 19.9117 12.1629 21.116 12.238 22.5395L13.7359 22.4605C13.6485 20.8042 13.1507 19.2585 12.1858 18.1121C11.205 16.9467 9.78595 16.25 8.00001 16.25V17.75ZM3.76202 22.5395C3.83714 21.116 4.26011 19.9117 4.96179 19.078C5.64745 18.2634 6.64061 17.75 8.00001 17.75V16.25C6.21407 16.25 4.79502 16.9467 3.81417 18.1121C2.84934 19.2585 2.3515 20.8042 2.2641 22.4605L3.76202 22.5395ZM13.25 7C13.25 9.8995 10.8995 12.25 8 12.25V13.75C11.7279 13.75 14.75 10.7279 14.75 7H13.25ZM8 12.25C5.10051 12.25 2.75 9.8995 2.75 7H1.25C1.25 10.7279 4.27208 13.75 8 13.75V12.25ZM2.75 7C2.75 4.10051 5.10051 1.75 8 1.75V0.25C4.27208 0.25 1.25 3.27208 1.25 7H2.75ZM8 1.75C10.8995 1.75 13.25 4.10051 13.25 7H14.75C14.75 3.27208 11.7279 0.25 8 0.25V1.75Z" fill="black"/>
</svg>

<svg width="24" height="24" viewBox="0 0 24 24" fill="none" xmlns="http://www.w3.org/2000/svg"><path d="M14.604 17.9a.75.75 0 10.792 1.274l-.792-1.274zm5.632 4.646a.75.75 0 101.497-.092l-1.497.092zM17 4.25a.75.75 0 000 1.5v-1.5zm-2.55 9.15a.75.75 0 10-.901 1.2l.901-1.2zm-2.212 9.14a.75.75 0 101.498-.08l-1.498.08zm-9.974-.08a.75.75 0 001.498.08l-1.498-.08zm13.132-3.286c.425-.264.953-.424 1.604-.424v-1.5c-.909 0-1.715.227-2.396.65l.792 1.274zM17 18.75c1.023 0 1.767.395 2.289 1.029.538.655.877 1.614.947 2.767l1.497-.092c-.084-1.373-.493-2.664-1.286-3.628-.81-.984-1.98-1.576-3.447-1.576v1.5zM21.25 10A4.25 4.25 0 0117 14.25v1.5A5.75 5.75 0 0022.75 10h-1.5zM17 5.75A4.25 4.25 0 0121.25 10h1.5A5.75 5.75 0 0017 4.25v1.5zm0 8.5c-.958 0-1.84-.316-2.55-.85l-.901 1.2A5.728 5.728 0 0017 15.75v-1.5zm-9 3.5c1.36 0 2.353.513 3.038 1.328.702.834 1.125 2.038 1.2 3.462l1.498-.08c-.088-1.656-.585-3.201-1.55-4.348-.981-1.165-2.4-1.862-4.186-1.862v1.5zm-4.238 4.79c.075-1.424.498-2.628 1.2-3.462C5.647 18.263 6.64 17.75 8 17.75v-1.5c-1.786 0-3.205.697-4.186 1.862-.965 1.147-1.462 2.692-1.55 4.349l1.498.079zM13.25 7c0 2.9-2.35 5.25-5.25 5.25v1.5A6.75 6.75 0 0014.75 7h-1.5zM8 12.25A5.25 5.25 0 012.75 7h-1.5A6.75 6.75 0 008 13.75v-1.5zM2.75 7C2.75 4.1 5.1 1.75 8 1.75V.25A6.75 6.75 0 001.25 7h1.5zM8 1.75c2.9 0 5.25 2.35 5.25 5.25h1.5A6.75 6.75 0 008 .25v1.5z" fill="#000"/></svg>
